X:36
T: Maid of the Mill - Morris Dance
F: http://www.vwml.org.uk/record/CJS2/10/2339
S: As taught by William Wells at Stow, in Aug 09
S: CJS2-10-2339
Z:also includes CJS2-10-2340
Z:transcribed by Andy Turner, Dec 2014
M:6/8
L:1/8
K:G
T: Foot Up
D|G>FG B>AG|A>Bc d>BG|D>cB c>Bc|A>FD D>EF|G>FG B>AG|A>Bc d>BG|D>cB A>GF|G3G2||
T: Jig and half Hey
B<c|d>ed d>fg|c>AB c>dc|A>Bc d>ed|G>AG F>ED|G>FG B>AG|A>Bc d>BG|D>cB A>GF|G3G2||
T: Gipsies
D|G>FG B>AG|A>Bc d>BG|D>cB c>Bc|A>FD D>EF|G>FG B>AG|A>Bc d>BG|D>cB A>GF|G3G2||

